SVG_Azure_Grouped/Deployment/Visual Studio Code.svg

<?xml version="1.0" encoding="UTF-8" standalone="no"?>
<!-- Generated by Microsoft Visio, SVG Export Visual Studio Code.svg Page-1 -->

<svg
   xmlns:dc="http://purl.org/dc/elements/1.1/"
   xmlns:cc="http://creativecommons.org/ns#"
   xmlns:rdf="http://www.w3.org/1999/02/22-rdf-syntax-ns#"
   xmlns:svg="http://www.w3.org/2000/svg"
   xmlns="http://www.w3.org/2000/svg"
   xmlns:sodipodi="http://sodipodi.sourceforge.net/DTD/sodipodi-0.dtd"
   xmlns:inkscape="http://www.inkscape.org/namespaces/inkscape"
   width="0.77286154in"
   height="0.77089834in"
   viewBox="0 0 55.646029 55.504818"
   xml:space="preserve"
   class="st5"
   version="1.1"
   id="svg31"
   sodipodi:docname="Visual Studio Code.svg"
   style="font-size:12px;overflow:visible;color-interpolation-filters:sRGB;fill:none;fill-rule:evenodd;stroke-linecap:square;stroke-miterlimit:3"
   inkscape:version="0.92.5 (2060ec1f9f, 2020-04-08)"><metadata
   id="metadata37"><rdf:RDF><cc:Work
       rdf:about=""><dc:format>image/svg+xml</dc:format><dc:type
         rdf:resource="http://purl.org/dc/dcmitype/StillImage" /></cc:Work></rdf:RDF></metadata><defs
   id="defs35" /><sodipodi:namedview
   pagecolor="#ffffff"
   bordercolor="#666666"
   borderopacity="1"
   objecttolerance="10"
   gridtolerance="10"
   guidetolerance="10"
   inkscape:pageopacity="0"
   inkscape:pageshadow="2"
   inkscape:window-width="640"
   inkscape:window-height="480"
   id="namedview33"
   showgrid="false"
   inkscape:zoom="1.8365233"
   inkscape:cx="36.690838"
   inkscape:cy="18.530752"
   inkscape:window-x="0"
   inkscape:window-y="0"
   inkscape:window-maximized="0"
   inkscape:current-layer="svg31" />
	<style
   type="text/css"
   id="style2">
	<![CDATA[
		.st1 {fill:#2489ca;stroke:none;stroke-linecap:butt;stroke-width:1.84939}
		.st2 {fill:#1070b3;stroke:none;stroke-linecap:butt;stroke-width:1.84939}
		.st3 {fill:#0877b9;stroke:none;stroke-linecap:butt;stroke-width:1.84939}
		.st4 {fill:#3c99d4;stroke:none;stroke-linecap:butt;stroke-width:1.84939}
		.st5 {fill:none;fill-rule:evenodd;font-size:12px;overflow:visible;stroke-linecap:square;stroke-miterlimit:3}
	]]>
	</style>

	<g
   id="g29"
   transform="translate(-6.4976386,-6.5822794)">
		<title
   id="title4">Page-1</title>
		<g
   id="group17062-1"
   transform="translate(5.66929,-34.0157)">
			<title
   id="title6">Visual Studio Code.17062</title>
			<g
   id="shape17063-2"
   transform="translate(0,-0.78582)">
				<title
   id="title8">path2</title>
				<path
   d="m 1.36,60.74 c 0,0 -1.36,-0.99 0.27,-2.3 l 3.79,-3.42 c 0,0 1.08,-1.15 2.23,-0.15 l 34.96,26.7 v 12.8 c 0,0 -0.01,2.01 -2.57,1.79 z"
   class="st1"
   id="path10"
   inkscape:connector-curvature="0"
   style="fill:#2489ca;stroke:none;stroke-width:1.84939003;stroke-linecap:butt" />
			</g>
			<g
   id="shape17064-4"
   transform="translate(0.429192,-13.0628)">
				<title
   id="title13">path4</title>
				<path
   d="m 9.94,81.27 -9.01,8.26 c 0,0 -0.93,0.69 0,1.93 l 4.18,3.84 c 0,0 0.99,1.08 2.46,-0.15 l 9.56,-7.3 z"
   class="st2"
   id="path15"
   inkscape:connector-curvature="0"
   style="fill:#1070b3;stroke:none;stroke-width:1.84939003;stroke-linecap:butt" />
			</g>
			<g
   id="shape17065-6"
   transform="translate(17.5574,-28.1073)">
				<title
   id="title18">path6</title>
				<path
   d="M 8.63,96.38 25.16,83.65 25.06,70.92 c 0,0 -0.71,-2.78 -3.06,-1.33 L 0,89.77 Z"
   class="st3"
   id="path20"
   inkscape:connector-curvature="0"
   style="fill:#0877b9;stroke:none;stroke-width:1.84939003;stroke-linecap:butt" />
			</g>
			<g
   id="shape17066-8"
   transform="translate(39.5535)">
				<title
   id="title23">path8</title>
				<path
   d="m 0.49,95.39 c 0.96,0.99 2.12,0.66 2.12,0.66 l 12.88,-6.4 c 1.65,-1.13 1.42,-2.54 1.42,-2.54 V 48.89 c 0,-1.68 -1.71,-2.26 -1.71,-2.26 L 4.04,41.21 C 1.6,39.69 0,41.48 0,41.48 c 0,0 2.06,-1.49 3.06,1.33 v 50.54 c 0,0.35 -0.07,0.69 -0.22,1 -0.29,0.59 -0.93,1.15 -2.46,0.92 z"
   class="st4"
   id="path25"
   inkscape:connector-curvature="0"
   style="fill:#3c99d4;stroke:none;stroke-width:1.84939003;stroke-linecap:butt" />
			</g>
		</g>
	</g>
</svg>

<?xml version="1.0" encoding="UTF-8" standalone="no"?>
<!DOCTYPE svg PUBLIC "-//W3C//DTD SVG 1.1//EN" "http://www.w3.org/Graphics/SVG/1.1/DTD/svg11.dtd">
<!-- Generated by Microsoft Visio, SVG Export Visual Studio Code.svg Page-1 -->
<svg xmlns="http://www.w3.org/2000/svg" xmlns:xlink="http://www.w3.org/1999/xlink" xmlns:ev="http://www.w3.org/2001/xml-events"
		width="0.944882in" height="1.33858in" viewBox="0 0 68.0315 96.378" xml:space="preserve" color-interpolation-filters="sRGB"
		class="st5">
	<style type="text/css">
	<![CDATA[
		.st1 {fill:#2489ca;stroke:none;stroke-linecap:butt;stroke-width:1.84939}
		.st2 {fill:#1070b3;stroke:none;stroke-linecap:butt;stroke-width:1.84939}
		.st3 {fill:#0877b9;stroke:none;stroke-linecap:butt;stroke-width:1.84939}
		.st4 {fill:#3c99d4;stroke:none;stroke-linecap:butt;stroke-width:1.84939}
		.st5 {fill:none;fill-rule:evenodd;font-size:12px;overflow:visible;stroke-linecap:square;stroke-miterlimit:3}
	]]>
	</style>

	<g>
		<title>Page-1</title>
		<g id="group16669-1" transform="translate(5.66929,-34.0157)">
			<title>Visual Studio Code.16669</title>
			<g id="shape16670-2" transform="translate(0,-0.78582)">
				<title>path2</title>
				<path d="M1.36 60.74 C1.36 60.74 0 59.75 1.63 58.44 L5.42 55.02 C5.42 55.02 6.5 53.87 7.65 54.87 L42.61 81.57 L42.61
							 94.37 C42.61 94.37 42.6 96.38 40.04 96.16 L1.36 60.74 Z" class="st1"/>
			</g>
			<g id="shape16671-4" transform="translate(0.429192,-13.0628)">
				<title>path4</title>
				<path d="M9.94 81.27 L0.93 89.53 C0.93 89.53 0 90.22 0.93 91.46 L5.11 95.3 C5.11 95.3 6.1 96.38 7.57 95.15 L17.13
							 87.85 L9.94 81.27 Z" class="st2"/>
			</g>
			<g id="shape16672-6" transform="translate(17.5574,-28.1073)">
				<title>path6</title>
				<path d="M8.63 96.38 L25.16 83.65 L25.06 70.92 C25.06 70.92 24.35 68.14 22 69.59 L0 89.77 L8.63 96.38 Z"
						class="st3"/>
			</g>
			<g id="shape16673-8" transform="translate(39.5535,0)">
				<title>path8</title>
				<path d="M0.49 95.39 C1.45 96.38 2.61 96.05 2.61 96.05 L15.49 89.65 C17.14 88.52 16.91 87.11 16.91 87.11 L16.91 48.89
							 C16.91 47.21 15.2 46.63 15.2 46.63 L4.04 41.21 C1.6 39.69 0 41.48 0 41.48 C0 41.48 2.06 39.99 3.06 42.81
							 L3.06 93.35 C3.06 93.7 2.99 94.04 2.84 94.35 C2.55 94.94 1.91 95.5 0.38 95.27 L0.49 95.39 Z"
						class="st4"/>
			</g>
		</g>
	</g>
</svg>
